packages/tokens/icons/shoppingAvailability/size32Px.svg

<svg viewBox="0 0 32 32" fill="none" xmlns="http://www.w3.org/2000/svg" width="1em" height="1em"><circle cx="11.5" cy="27.5" r="2" stroke="currentColor"/><circle cx="22.5" cy="27.5" r="2" stroke="currentColor"/><path d="M25.5 23.5L9.51314 23.5C8.40857 23.5 7.51314 22.6046 7.51314 21.5L7.51314 6.5C7.51314 5.39543 6.61771 4.5 5.51314 4.5H4" stroke="currentColor" stroke-linecap="round"/><path d="M12.0785 8.36719C12.1473 7.59328 12.7956 7 13.5726 7L20.4274 7C21.2044 7 21.8527 7.59328 21.9215 8.36719L22.8549 18.8672C22.9329 19.7446 22.2416 20.5 21.3608 20.5H12.6392C11.7584 20.5 11.0671 19.7446 11.1451 18.8672L12.0785 8.36719Z" stroke="currentColor"/><path d="M19.5 8.5C19.5 6.76966 19.5 3.5 17 3.5C14.5 3.5 14.5 6.76966 14.5 8.5" stroke="currentColor" stroke-linecap="round"/></svg>

<svg xmlns="http://www.w3.org/2000/svg" fill="none" viewBox="0 0 32 32" width="1em" height="1em"><circle cx="11.5" cy="27.5" r="2" stroke="currentColor"/><circle cx="22.5" cy="27.5" r="2" stroke="currentColor"/><path stroke="currentColor" stroke-linecap="round" d="M25.5 23.5H9.513a2 2 0 0 1-2-2v-15a2 2 0 0 0-2-2H4"/><path stroke="currentColor" d="M12.079 8.367A1.5 1.5 0 0 1 13.572 7h6.854a1.5 1.5 0 0 1 1.495 1.367l.933 10.5A1.5 1.5 0 0 1 21.36 20.5h-8.722a1.5 1.5 0 0 1-1.494-1.633l.934-10.5Z"/><path stroke="currentColor" stroke-linecap="round" d="M19.5 8.5c0-1.73 0-5-2.5-5s-2.5 3.27-2.5 5"/></svg>
